public/assets/icons/white/burning.svg

<?xml version="1.0" encoding="UTF-8" standalone="no"?>
<svg
   version="1.1"
   viewBox="0 -64 1024 1024"
   width="512"
   height="512"
   id="svg1"
   sodipodi:docname="burning.svg"
   inkscape:version="1.3.1 (91b66b0783, 2023-11-16)"
   xmlns:inkscape="http://www.inkscape.org/namespaces/inkscape"
   xmlns:sodipodi="http://sodipodi.sourceforge.net/DTD/sodipodi-0.dtd"
   xmlns="http://www.w3.org/2000/svg"
   xmlns:svg="http://www.w3.org/2000/svg">
  <defs
     id="defs1" />
  <sodipodi:namedview
     id="namedview1"
     pagecolor="#ffffff"
     bordercolor="#000000"
     borderopacity="0.25"
     inkscape:showpageshadow="2"
     inkscape:pageopacity="0.0"
     inkscape:pagecheckerboard="0"
     inkscape:deskcolor="#d1d1d1"
     inkscape:zoom="1.6230469"
     inkscape:cx="255.69194"
     inkscape:cy="256"
     inkscape:window-width="1920"
     inkscape:window-height="1009"
     inkscape:window-x="3832"
     inkscape:window-y="-8"
     inkscape:window-maximized="1"
     inkscape:current-layer="svg1" />
  <g
     transform="matrix(1 0 0 -1 0 960)"
     id="g1"
     style="fill:#ffffff">
    <path
       fill="currentColor"
       d="M62 913q-1 -75 5 -146q6 -70 27 -130.5t61 -108.5q41 -48 108 -77q83 -35 104 -76q22 -40 -0.5 -69t-81.5 -38q-59 -10 -138 17q57 -49 111 -100q55 -51 105.5 -95t97.5 -78q46 -33 88 -47q10 -4 21 -6.5t23 -2.5q17 0 32.5 5t29.5 14q47 -13 88 -17.5t76 -1.5 q30 1 57.5 10t50.5 26q37 25 58 65q20 40 23.5 92t-11.5 114q-14 63 -47 131q2 13 1.5 25.5t-3.5 25.5q-3 14 -9.5 27t-15.5 24q-21 32 -56 63q-36 31 -78.5 62t-90.5 62l-94 62q117 -149 111.5 -205.5t-90.5 16.5q2 12 -1 23.5t-11 23.5q-2 5 -5.5 9.5t-7.5 8.5 q-27 34 -74.5 77.5t-99.5 107.5q28 -140 -1 -179q-30 -39 -89.5 -10t-134.5 111q-76 82 -139 185v0zM536 612q21 0 35.5 -14.5t14.5 -35.5t-14.5 -36t-35.5 -15t-36 15t-15 36t15 35.5t36 14.5v0zM831 503q34 0 58 -24t24 -58t-24 -58t-58 -24q-8 0 -15.5 1t-13.5 4 q-2 29 -15.5 53.5t-35.5 40.5q6 28 28 46.5t52 18.5v0zM680 424q35 0 59.5 -25t24.5 -60t-24.5 -59.5t-59.5 -24.5t-60 24.5t-25 59.5t25 60t60 25v0zM818 293q62 0 105.5 -44t43.5 -106t-43.5 -105.5t-105.5 -43.5q-35 0 -65.5 14.5t-50.5 40.5q0 4 0.5 8.5t0.5 8.5 q0 24 -9.5 44.5t-25.5 35.5q1 20 6 38t14 34q35 2 62.5 22t40.5 50q7 2 13.5 2.5t13.5 0.5v0zM527 272q18 0 31.5 -13.5t13.5 -32.5t-13.5 -32t-31.5 -13q-19 0 -32.5 13t-13.5 32t13.5 32.5t32.5 13.5v0zM593 139q30 0 51.5 -21.5t21.5 -51.5t-21.5 -51.5t-51.5 -21.5 t-51.5 21.5t-21.5 51.5t21.5 51.5t51.5 21.5v0z"
       id="path1"
       style="fill:#ffffff" />
  </g>
</svg>

<?xml version="1.0" encoding="UTF-8" standalone="no"?>
<svg
   version="1.1"
   viewBox="0 -64 1024 1024"
   width="512"
   height="512"
   id="svg1"
   sodipodi:docname="burning.svg"
   inkscape:version="1.2.2 (732a01da63, 2022-12-09)"
   xmlns:inkscape="http://www.inkscape.org/namespaces/inkscape"
   xmlns:sodipodi="http://sodipodi.sourceforge.net/DTD/sodipodi-0.dtd"
   xmlns="http://www.w3.org/2000/svg"
   xmlns:svg="http://www.w3.org/2000/svg">
  <defs
     id="defs1" />
  <sodipodi:namedview
     id="namedview1"
     pagecolor="#ffffff"
     bordercolor="#000000"
     borderopacity="0.25"
     inkscape:showpageshadow="2"
     inkscape:pageopacity="0.0"
     inkscape:pagecheckerboard="0"
     inkscape:deskcolor="#d1d1d1"
     inkscape:zoom="0.81152345"
     inkscape:cx="297.58844"
     inkscape:cy="383.22984"
     inkscape:window-width="1920"
     inkscape:window-height="1009"
     inkscape:window-x="-8"
     inkscape:window-y="-8"
     inkscape:window-maximized="1"
     inkscape:current-layer="svg1"
     showgrid="false" />
  <g
     transform="matrix(1,0,0,-1,-23.509653,881.9)"
     id="g1"
     style="fill:#ffffff">
    <path
       fill="currentColor"
       d="M 62,913 Q 61,838 67,767 73,697 94,636.5 115,576 155,528 196,480 263,451 346,416 367,375 389,335 366.5,306 344,277 285,268 226,258 147,285 204,236 258,185 313,134 363.5,90 414,46 461,12 q 46,-33 88,-47 10,-4 21,-6.5 11,-2.5 23,-2.5 17,0 32.5,5 15.5,5 29.5,14 47,-13 88,-17.5 41,-4.5 76,-1.5 30,1 57.5,10 27.5,9 50.5,26 37,25 58,65 20,40 23.5,92 3.5,52 -11.5,114 -14,63 -47,131 2,13 1.5,25.5 -0.5,12.5 -3.5,25.5 -3,14 -9.5,27 -6.5,13 -15.5,24 -21,32 -56,63 -36,31 -78.5,62 -42.5,31 -90.5,62 l -94,62 Q 721,596 715.5,539.5 710,483 625,556 q 2,12 -1,23.5 -3,11.5 -11,23.5 -2,5 -5.5,9.5 Q 604,617 600,621 573,655 525.5,698.5 478,742 426,806 454,666 425,627 395,588 335.5,617 276,646 201,728 125,810 62,913 Z M 536,612 q 21,0 35.5,-14.5 Q 586,583 586,562 586,541 571.5,526 557,511 536,511 q -21,0 -36,15 -15,15 -15,36 0,21 15,35.5 15,14.5 36,14.5 z M 831,503 q 34,0 58,-24 24,-24 24,-58 0,-34 -24,-58 -24,-24 -58,-24 -8,0 -15.5,1 -7.5,1 -13.5,4 -2,29 -15.5,53.5 Q 773,422 751,438 q 6,28 28,46.5 22,18.5 52,18.5 z M 680,424 q 35,0 59.5,-25 Q 764,374 764,339 764,304 739.5,279.5 715,255 680,255 q -35,0 -60,24.5 -25,24.5 -25,59.5 0,35 25,60 25,25 60,25 z M 818,293 q 62,0 105.5,-44 Q 967,205 967,143 967,81 923.5,37.5 880,-6 818,-6 783,-6 752.5,8.5 722,23 702,49 q 0,4 0.5,8.5 0.5,4.5 0.5,8.5 0,24 -9.5,44.5 Q 684,131 668,146 q 1,20 6,38 5,18 14,34 35,2 62.5,22 27.5,20 40.5,50 7,2 13.5,2.5 6.5,0.5 13.5,0.5 z M 527,272 q 18,0 31.5,-13.5 Q 572,245 572,226 572,207 558.5,194 545,181 527,181 q -19,0 -32.5,13 -13.5,13 -13.5,32 0,19 13.5,32.5 Q 508,272 527,272 Z m 66,-133 q 30,0 51.5,-21.5 Q 666,96 666,66 666,36 644.5,14.5 623,-7 593,-7 563,-7 541.5,14.5 520,36 520,66 520,96 541.5,117.5 563,139 593,139 Z"
       id="path1"
       style="fill:#ffffff" />
  </g>
</svg>
